source/img/sprite/3.svg

<svg width="261" height="276" viewBox="0 0 261 276" fill="none" xmlns="http://www.w3.org/2000/svg">
<path d="M36.1354 45.9528L32.3992 49.9128L43.1693 60.0743L40.6561 62.738L29.8861 52.5765L26.2001 56.4832L24.0425 54.4476L33.9778 43.9172L36.1354 45.9528Z"/>
<path d="M52.7804 51.5595C51.2967 52.8045 49.7054 53.3643 48.0066 53.2388C46.314 53.108 44.8321 52.2853 43.5609 50.7704L43.3412 50.5086C42.4885 49.4924 41.9238 48.4206 41.6469 47.2931C41.3649 46.1594 41.4018 45.0766 41.7578 44.0449C42.1147 43.0017 42.7545 42.093 43.6771 41.3188C45.0611 40.1575 46.5151 39.681 48.0392 39.8894C49.5695 40.0926 51.0068 40.9952 52.3512 42.5974L53.2772 43.7008L46.8343 49.1072C47.4761 49.6947 48.1826 50.0049 48.9538 50.0377C49.7312 50.0653 50.4565 49.7966 51.1298 49.2316C52.1709 48.358 52.6679 47.2982 52.6209 46.0522L55.1964 46.4247C55.2725 47.3383 55.1005 48.2475 54.6806 49.1523C54.2554 50.0509 53.622 50.8533 52.7804 51.5595ZM45.5039 43.5148C44.9678 43.9646 44.6831 44.5116 44.6499 45.1557C44.6229 45.7945 44.8451 46.4898 45.3166 47.2415L49.0757 44.0871L48.8952 43.872C48.3805 43.284 47.8314 42.9587 47.2476 42.8961C46.6587 42.8273 46.0775 43.0335 45.5039 43.5148Z"/>
<path d="M64.2789 34.9996C65.4085 36.6917 65.9287 38.3063 65.8395 39.8434C65.7524 41.3693 65.0558 42.5682 63.7495 43.4403C62.6395 44.1814 61.4851 44.3943 60.2864 44.0791L63.7432 49.2568L60.8091 51.2156L50.6558 36.0073L53.3767 34.1908L54.1966 35.1992C54.338 33.872 54.9805 32.8265 56.1244 32.0629C57.478 31.1591 58.8649 30.9573 60.2849 31.4575C61.7049 31.9576 63.0024 33.0876 64.1772 34.8473L64.2789 34.9996ZM61.2025 36.7452C60.5202 35.7232 59.811 35.0567 59.075 34.7457C58.3458 34.4302 57.636 34.5029 56.9456 34.9638C56.0251 35.5783 55.6273 36.3528 55.752 37.2871L58.7546 41.7846C59.5968 42.2694 60.4782 42.2045 61.3987 41.5899C62.7997 40.6546 62.7343 39.0397 61.2025 36.7452Z"/>
<path d="M74.2101 32.3474L73.2929 22.7083L77.2531 20.7478L83.1131 32.5846L79.9515 34.1498L76.3553 26.8858L77.1181 35.5526L74.9958 36.6033L68.6805 30.8352L72.2171 37.9789L69.0555 39.5441L63.1954 27.7072L67.1228 25.7629L74.2101 32.3474Z"/>
<path d="M82.6027 25.5821C82.1795 24.3421 82.0411 23.1554 82.1874 22.022C82.3337 20.8886 82.7629 19.9038 83.4749 19.0674C84.1947 18.2285 85.1476 17.6066 86.3337 17.2018C88.0204 16.6261 89.5713 16.673 90.9863 17.3423C92.4091 18.0089 93.4844 19.207 94.2122 20.9363L94.5271 21.7833C95.1816 23.7011 95.172 25.4241 94.4984 26.9525C93.8221 28.4731 92.5828 29.541 90.7806 30.1561C88.9784 30.7711 87.341 30.685 85.8685 29.8978C84.4036 29.1079 83.3321 27.7194 82.654 25.7323L82.6027 25.5821ZM86.0243 24.6852C86.4291 25.8713 86.9626 26.7039 87.6248 27.183C88.2844 27.6544 89.0301 27.7482 89.8619 27.4643C90.6706 27.1883 91.197 26.6647 91.4412 25.8934C91.6827 25.1145 91.5708 24.0434 91.1055 22.6802C90.7086 21.5172 90.1739 20.6937 89.5013 20.2095C88.8287 19.7253 88.0804 19.6239 87.2563 19.9051C86.4399 20.1837 85.9174 20.7189 85.6889 21.5106C85.4577 22.2946 85.5695 23.3528 86.0243 24.6852Z"/>
<path d="M104.23 19.7532L97.5394 21.3229L96.8898 18.5539L103.581 16.9841L104.23 19.7532Z"/>
<path d="M113.204 21.8796C113.848 21.7896 114.348 21.5392 114.701 21.1283C115.055 20.7174 115.198 20.2166 115.132 19.626L118.409 19.1687C118.524 20.0564 118.396 20.9042 118.024 21.7121C117.651 22.5119 117.078 23.1753 116.305 23.7022C115.539 24.22 114.657 24.5486 113.657 24.6881C111.787 24.9491 110.23 24.5625 108.984 23.5285C107.738 22.4863 106.968 20.9175 106.676 18.8219L106.644 18.5922C106.362 16.5772 106.674 14.8945 107.578 13.5439C108.483 12.1934 109.87 11.3876 111.74 11.1267C113.376 10.8983 114.751 11.183 115.865 11.9807C116.985 12.7692 117.662 13.9361 117.894 15.4813L114.618 15.9386C114.507 15.2638 114.221 14.745 113.759 14.3821C113.297 14.0112 112.735 13.8719 112.074 13.9641C111.26 14.0777 110.685 14.462 110.349 15.1169C110.02 15.7627 109.949 16.7505 110.134 18.0804L110.185 18.4431C110.373 19.7891 110.713 20.7276 111.207 21.2586C111.7 21.7896 112.365 21.9966 113.204 21.8796Z"/>
<path d="M125.929 18.3779L128.083 10.0827L131.865 9.95133L127.088 25.3853L126.82 26.0909C126.091 27.8425 124.819 28.7498 123.006 28.8129C122.493 28.8307 121.97 28.7715 121.436 28.6353L121.343 25.9636L121.88 25.9572C122.547 25.934 123.04 25.8151 123.358 25.6004C123.684 25.3855 123.933 25.039 124.104 24.5607L124.481 23.4606L119.397 10.3846L123.191 10.2527L125.929 18.3779Z"/>
<path d="M141.466 19.5961L145.708 10.8923L150.11 11.2837L148.94 24.4398L145.426 24.1273L146.144 16.0537L142.276 23.8472L139.918 23.6375L137.535 15.4229L136.829 23.3628L133.315 23.0503L134.485 9.89421L138.85 10.2824L141.466 19.5961Z"/>
<path d="M157.417 21.2768L156.035 20.9692L154.977 25.7234L151.533 24.9569L154.403 12.0644L157.846 12.8309L156.767 17.6805L157.994 17.9537L161.886 13.73L166.235 14.698L160.651 19.8956L163.758 27.678L159.171 26.657L157.417 21.2768Z"/>
<path d="M172.48 30.68C172.43 30.3269 172.447 29.9153 172.532 29.4452C171.413 30.0661 170.208 30.1534 168.916 29.7069C167.693 29.2844 166.799 28.5797 166.236 27.593C165.681 26.609 165.589 25.5786 165.961 24.5017C166.418 23.1787 167.258 22.3321 168.479 21.962C169.708 21.5945 171.251 21.7271 173.107 22.3599L174.642 22.8901L174.889 22.1747C175.088 21.5978 175.098 21.0845 174.917 20.6347C174.744 20.1876 174.339 19.8538 173.7 19.6332C173.139 19.4392 172.65 19.421 172.234 19.5786C171.826 19.7388 171.54 20.0536 171.378 20.5228L168.044 19.3707C168.294 18.6477 168.748 18.0556 169.407 17.5944C170.065 17.1331 170.862 16.8703 171.797 16.8059C172.735 16.7338 173.711 16.8731 174.727 17.2239C176.265 17.7554 177.35 18.565 177.981 19.6529C178.623 20.7356 178.702 21.977 178.219 23.3769L176.349 28.7881C175.948 29.9753 175.803 30.9286 175.917 31.6479L175.849 31.844L172.48 30.68ZM170.523 27.4082C171.016 27.5783 171.507 27.6274 171.996 27.5555C172.489 27.4759 172.899 27.2861 173.226 26.986L173.968 24.84L172.722 24.4094C171.053 23.8328 169.965 24.1027 169.459 25.2193L169.379 25.4114C169.236 25.8268 169.264 26.2196 169.463 26.5898C169.662 26.96 170.016 27.2328 170.523 27.4082Z"/>
</svg>

<svg width="261" height="276" fill="none" xmlns="http://www.w3.org/2000/svg"><path d="M36.135 45.953l-3.736 3.96 10.77 10.161-2.513 2.664-10.77-10.161-3.686 3.906-2.157-2.035 9.935-10.53 2.157 2.035zM52.78 51.56c-1.483 1.244-3.075 1.804-4.773 1.679-1.693-.131-3.175-.954-4.446-2.469l-.22-.261c-.852-1.017-1.417-2.088-1.694-3.216-.282-1.134-.245-2.216.11-3.248.358-1.043.998-1.952 1.92-2.726 1.384-1.162 2.838-1.638 4.362-1.43 1.53.204 2.968 1.106 4.312 2.708l.926 1.104-6.443 5.406c.642.588 1.349.898 2.12.93.777.028 1.502-.24 2.176-.805 1.04-.874 1.538-1.934 1.49-3.18l2.576.373c.077.913-.096 1.823-.515 2.727-.426.899-1.059 1.701-1.9 2.407zm-7.276-8.045c-.536.45-.82.997-.854 1.64-.027.64.195 1.335.667 2.087l3.759-3.155-.18-.215c-.516-.588-1.065-.913-1.648-.976-.59-.069-1.17.137-1.744.619zM64.279 35c1.13 1.692 1.65 3.306 1.56 4.843-.087 1.526-.783 2.725-2.09 3.597-1.11.741-2.264.954-3.463.64l3.457 5.177-2.934 1.959-10.153-15.209 2.72-1.816.82 1.008c.142-1.327.785-2.372 1.928-3.136 1.354-.904 2.74-1.106 4.16-.606 1.42.5 2.718 1.63 3.893 3.39l.102.153zm-3.076 1.745c-.683-1.022-1.392-1.688-2.128-2-.73-.315-1.439-.242-2.13.219-.92.614-1.318 1.389-1.193 2.323l3.003 4.498c.842.484 1.723.42 2.644-.195 1.4-.935 1.335-2.55-.197-4.845zm13.007-4.398l-.917-9.639 3.96-1.96 5.86 11.837-3.162 1.565-3.596-7.264.763 8.667-2.122 1.05-6.316-5.768 3.537 7.144-3.162 1.565-5.86-11.837 3.928-1.944 7.087 6.584zm8.393-6.765c-.423-1.24-.562-2.427-.416-3.56.147-1.133.576-2.118 1.288-2.955.72-.838 1.673-1.46 2.859-1.865 1.686-.576 3.237-.529 4.652.14 1.423.667 2.498 1.865 3.226 3.594l.315.847c.655 1.918.645 3.641-.029 5.17-.676 1.52-1.915 2.588-3.717 3.203-1.803.615-3.44.529-4.913-.258-1.464-.79-2.536-2.179-3.214-4.166l-.051-.15zm3.421-.897c.405 1.186.939 2.019 1.6 2.498.66.471 1.406.565 2.238.281.809-.276 1.335-.8 1.58-1.57.24-.78.129-1.85-.336-3.214-.397-1.163-.932-1.986-1.605-2.47-.672-.485-1.42-.586-2.245-.305-.816.279-1.339.814-1.567 1.606-.231.784-.12 1.842.335 3.174zm18.206-4.932l-6.69 1.57-.65-2.77 6.691-1.569.649 2.77zm8.974 2.127c.644-.09 1.144-.34 1.497-.752.354-.41.497-.911.431-1.502l3.277-.457a4.562 4.562 0 01-.385 2.543c-.373.8-.946 1.463-1.719 1.99-.766.518-1.648.847-2.648.986-1.87.261-3.427-.125-4.673-1.16-1.246-1.042-2.016-2.61-2.308-4.706l-.032-.23c-.282-2.015.03-3.697.934-5.048.905-1.35 2.292-2.156 4.162-2.417 1.636-.229 3.011.056 4.125.854 1.12.788 1.797 1.955 2.029 3.5l-3.276.458c-.111-.675-.397-1.194-.859-1.557-.462-.37-1.024-.51-1.685-.418-.814.114-1.389.498-1.725 1.153-.329.646-.4 1.633-.215 2.963l.051.363c.188 1.346.528 2.285 1.022 2.816.493.53 1.158.738 1.997.62zm12.725-3.502l2.154-8.295 3.782-.132-4.777 15.434-.268.706c-.729 1.752-2.001 2.659-3.814 2.722a5.55 5.55 0 01-1.57-.178l-.093-2.671.537-.007c.667-.023 1.16-.142 1.478-.357.326-.215.575-.561.746-1.04l.377-1.1-5.084-13.075 3.794-.132 2.738 8.125zm15.537 1.218l4.242-8.704 4.402.392-1.17 13.156-3.514-.313.718-8.073-3.868 7.793-2.358-.21-2.383-8.214-.706 7.94-3.514-.313 1.17-13.156 4.365.388 2.616 9.314zm15.951 1.681l-1.382-.308-1.058 4.754-3.444-.766 2.87-12.893 3.443.767-1.079 4.85 1.227.273 3.892-4.224 4.349.968-5.584 5.198 3.107 7.782-4.587-1.021-1.754-5.38zm15.063 9.403c-.05-.353-.033-.765.052-1.235-1.119.621-2.324.708-3.616.262-1.223-.423-2.117-1.127-2.68-2.114-.555-.984-.647-2.014-.275-3.091.457-1.323 1.297-2.17 2.518-2.54 1.229-.367 2.772-.235 4.628.398l1.535.53.247-.715c.199-.577.209-1.09.028-1.54-.173-.447-.578-.781-1.217-1.002-.561-.194-1.05-.212-1.466-.054-.408.16-.694.475-.856.944l-3.334-1.152c.25-.723.704-1.315 1.363-1.777.658-.46 1.455-.724 2.39-.788.938-.072 1.914.067 2.93.418 1.538.531 2.623 1.341 3.254 2.429.642 1.083.721 2.324.238 3.724l-1.87 5.411c-.401 1.187-.546 2.14-.432 2.86l-.068.196-3.369-1.164zm-1.957-3.272c.493.17.984.22 1.473.147.493-.08.903-.269 1.23-.569l.742-2.146-1.246-.43c-1.669-.577-2.757-.307-3.263.81l-.08.191c-.143.416-.115.809.084 1.179s.553.643 1.06.818z"/></svg>
